build/images/phone.svg

<svg width="30" height="31" viewBox="0 0 30 31" fill="none" xmlns="http://www.w3.org/2000/svg">
<path d="M18.9992 29.4915L18.9992 29.4915C19.83 29.7933 20.6729 29.9427 21.5196 29.9427L18.9992 29.4915ZM18.9992 29.4915C15.0088 28.0419 11.3013 25.679 8.28248 22.6603C5.26371 19.6415 2.90077 15.934 1.45125 11.9436C1.02487 10.7698 0.901029 9.56723 1.07818 8.35927M18.9992 29.4915L22.1739 21.0984M22.1739 21.0984L19.6892 23.5832L19.1783 24.0941L18.5328 23.7694C13.6341 21.3056 9.63705 17.3085 7.17318 12.4099L6.84851 11.7643L7.35945 11.2534L9.84423 8.76869L8.39384 2.00017C7.15745 2.00822 5.99501 2.30384 4.9273 2.87798C3.91206 3.42393 3.01928 4.21824 2.35003 5.17342C1.68374 6.12437 1.24414 7.22772 1.07818 8.35927M22.1739 21.0984L28.9425 22.5488C28.9344 23.7852 28.6388 24.9477 28.0646 26.0154L28.0646 26.0154C27.5186 27.0306 26.7243 27.9234 25.7692 28.5927L25.7691 28.5927C24.8183 29.2589 23.7149 29.6985 22.5833 29.8645L22.5831 29.8645C22.2274 29.9168 21.8725 29.9427 21.5198 29.9427L22.1739 21.0984ZM1.07818 8.35927L0.0887693 8.21415M1.07818 8.35927L0.0887693 8.21415M0.0887693 8.21415C-0.11281 9.58865 0.0294125 10.9582 0.511342 12.285C2.01105 16.4136 4.45374 20.2458 7.57538 23.3674C10.697 26.4889 14.5292 28.9316 18.6577 30.4314M0.0887693 8.21415C0.2776 6.92667 0.776313 5.67678 1.53105 4.59959C2.28912 3.51766 3.29976 2.61778 4.45368 1.99725C5.68421 1.33556 7.02731 1 8.44579 1C8.88696 1 9.26824 1.30825 9.3607 1.73959M18.6577 30.4314L9.86888 8.74404L9.86898 8.74394L9.9144 8.78936L10.8294 8.59333M18.6577 30.4314C19.5949 30.7719 20.5532 30.9427 21.5198 30.9427L18.6577 30.4314ZM9.3607 1.73959L8.44579 1.93564L8.3829 1.94912L8.38291 1.94917L8.44579 1.9357L9.3607 1.73959ZM9.3607 1.73959L10.8294 8.59333M10.8294 8.59333C10.8958 8.90368 10.8005 9.22661 10.5761 9.45105L9.91443 8.78939L10.8294 8.59333Z" stroke="#CCB48A" stroke-width="2"/>
</svg>

<svg width="30" height="31" viewBox="0 0 30 31" fill="none" xmlns="http://www.w3.org/2000/svg"><path d="M19 29.491h0c.83.302 1.673.452 2.52.452L19 29.49zm0 0a29.52 29.52 0 01-10.718-6.83 29.518 29.518 0 01-6.83-10.717 7.282 7.282 0 01-.374-3.585M19 29.492l3.175-8.394m0 0l-2.485 2.485-.51.511-.646-.325a25.629 25.629 0 01-11.36-11.36l-.324-.645.51-.51 2.485-2.485L8.394 2a7.333 7.333 0 00-3.467.878A7.512 7.512 0 002.35 5.173 7.478 7.478 0 001.078 8.36M22.174 21.1l6.768 1.45a7.333 7.333 0 01-.877 3.466h0a7.514 7.514 0 01-2.296 2.578h0a7.478 7.478 0 01-3.186 1.271h0c-.356.053-.71.079-1.063.079l.654-8.845zM1.078 8.358l-.99-.145m.99.145l-.99-.145m0 0a8.282 8.282 0 00.423 4.071 30.517 30.517 0 007.064 11.082 30.52 30.52 0 0011.083 7.064M.088 8.214A8.478 8.478 0 011.532 4.6a8.512 8.512 0 012.923-2.603A8.338 8.338 0 018.446 1c.441 0 .822.308.915.74m9.297 28.691L9.868 8.744h.001l.045.045.915-.196m7.829 21.838c.937.34 1.895.512 2.862.512l-2.862-.512zM9.36 1.74l-.915.196-.063.013h0l.063-.013.915-.196zm0 0l1.468 6.853m0 0a.936.936 0 01-.253.858l-.662-.662.915-.196z" stroke="#CCB48A" stroke-width="2"/></svg>
